X: 10723
T: Doyle's Fancy
R: reel
M: 4/4
K: Dmajor
DE|F2 (D2 ~D2) B,DA,G,|F,A,DF (3dAF (3DEF|E^DEF GEF=D|(3EFE (3DCB, ((3A,B,A,) ((3G,A,G,)|
F,A,DA, B,DA,G,|F,A,DF (3dAF (3DEF|GB,EG FDAF|EC (3A,B,C D2:|
turn!f2 D2 {A,G,}(3F,A,D (3FAf|e2 ce (3aec (3ABc|(3dfd (3cfc (3fcB (3Bcd|(3cBA (3aec A2 ((3FGA)|1
BGDB, (3G,B,D (3dcc|AFDA, (3F,A,D (3dAF|GFED (3CDE (3A,B,C|D2 F2 D2:|1 2
(3BGD (3B,DB, (3G,B,D (3dcB|(3AFD (3A,DA, (3F,A,D (3dAF|(3GFE (3FED (3CDE (3A,B,C|(3DFA dAF D2||

